icons/fill-new-symbol-upload-cloud-arrow-up.svg

<svg xmlns="http://www.w3.org/2000/svg" width="32px" height="32px" viewBox="0 0 32 32" version="1.1">
    <title>fill-new-symbol-upload-cloud-arrow-up</title>
    <g id="fill-new-symbol-upload-cloud-arrow-up" stroke-width="1" fill-rule="evenodd">
        <path d="M17,23 L17,28 C17,28.5522847 16.5522847,29 16,29 C15.4477153,29 15,28.5522847 15,28 L15,23 L17,23 Z M16,3 C19.4901658,3 22.4890255,5.10353124 23.7979363,8.11195092 C27.3212484,8.72638461 30,11.8003643 30,15.5 C30,19.6421356 26.6421356,23 22.5,23 L17,23 L17,16.415 L19.2928932,18.7071068 C19.6834175,19.0976311 20.3165825,19.0976311 20.7071068,18.7071068 C21.0976311,18.3165825 21.0976311,17.6834175 20.7071068,17.2928932 L16.7071068,13.2928932 C16.3165825,12.9023689 15.6834175,12.9023689 15.2928932,13.2928932 L11.2928932,17.2928932 C10.9023689,17.6834175 10.9023689,18.3165825 11.2928932,18.7071068 L11.3871006,18.7902954 C11.7793918,19.0953203 12.3466228,19.0675907 12.7071068,18.7071068 L15,16.415 L15,23 L9,23 C5.13400675,23 2,19.8659932 2,16 C2,12.527341 4.52872744,9.64529797 7.84525834,9.09479483 C8.88241864,5.57178735 12.1408728,3 16,3 Z" id="&#24418;&#29366;" />
    </g>
</svg>

<svg xmlns="http://www.w3.org/2000/svg" viewBox="0 0 32 32"><path fill="currentColor" d="M17 23v5a1 1 0 0 1-2 0v-5zM16 3a8.502 8.502 0 0 1 7.798 5.112A7.502 7.502 0 0 1 22.5 23H17v-6.585l2.293 2.292a1 1 0 0 0 1.414-1.414l-4-4a1 1 0 0 0-1.414 0l-4 4a1 1 0 0 0 0 1.414l.094.083a1 1 0 0 0 1.32-.083L15 16.415V23H9A7 7 0 0 1 7.845 9.095 8.503 8.503 0 0 1 16 3"/></svg>
